src/renderer/assets/payment-success-icon3.svg

<?xml version="1.0" encoding="UTF-8"?>
<svg width="63px" height="63px" viewBox="0 0 63 63" version="1.1" xmlns="http://www.w3.org/2000/svg" xmlns:xlink="http://www.w3.org/1999/xlink">
    <!-- Generator: Sketch 59 (86127) - https://sketch.com -->
    <title>Icon - Add</title>
    <desc>Created with Sketch.</desc>
    <defs>
        <radialGradient cx="84.2036702%" cy="81.3988863%" fx="84.2036702%" fy="81.3988863%" r="114.30679%" id="radialGradient-1">
            <stop stop-color="#FFFFFF" stop-opacity="0.775928442" offset="0%"></stop>
            <stop stop-color="#FFFFFF" stop-opacity="0.508378623" offset="100%"></stop>
        </radialGradient>
    </defs>
    <g id="页面-1" stroke="none" stroke-width="1" fill="none" fill-rule="evenodd" opacity="0.7" stroke-opacity="0.168081975">
        <g id="Userinfo/Payment-Instruction/Style5/Success" transform="translate(-396.000000, -245.000000)" fill="url(#radialGradient-1)" stroke="#FFFFFF" stroke-width="4">
            <g id="background" transform="translate(-25.000000, 29.000000)">
                <path d="M456,218 C457.104569,218 458,218.895431 458,220 L458,220 L458,242 L480,242 C481.054362,242 481.918165,242.815878 481.994514,243.850738 L482,244 L482,251 C482,252.104569 481.104569,253 480,253 L480,253 L458,253 L458,275 C458,276.054362 457.184122,276.918165 456.149262,276.994514 L456,277 L449,277 C447.895431,277 447,276.104569 447,275 L447,275 L447,253 L425,253 C423.945638,253 423.081835,252.184122 423.005486,251.149262 L423,251 L423,244 C423,242.895431 423.895431,242 425,242 L425,242 L447,242 L447,220 C447,218.945638 447.815878,218.081835 448.850738,218.005486 L449,218 Z" id="Icon---Add" opacity="0.2"></path>
            </g>
        </g>
    </g>
</svg>

<svg width="63" height="63" xmlns="http://www.w3.org/2000/svg">
    <defs>
        <radialGradient cx="84.204%" cy="81.399%" fx="84.204%" fy="81.399%" r="114.307%" id="a">
            <stop stop-color="#FFF" stop-opacity=".776" offset="0%"/>
            <stop stop-color="#FFF" stop-opacity=".508" offset="100%"/>
        </radialGradient>
    </defs>
    <g opacity=".7">
        <path d="M456 218a2 2 0 012 2h0v22h22a2 2 0 011.995 1.85l.005.15v7a2 2 0 01-2 2h0-22v22a2 2 0 01-1.85 1.995L456 277h-7a2 2 0 01-2-2h0v-22h-22a2 2 0 01-1.995-1.85L423 251v-7a2 2 0 012-2h22v-22a2 2 0 011.85-1.995L449 218z" opacity=".2" transform="translate(-421 -216)" fill="url(#a)" stroke="#FFF" stroke-width="4" fill-rule="evenodd" stroke-opacity=".168"/>
    </g>
</svg>
